germany/municipalities/03456015.svg

<?xml version="1.0" encoding="UTF-8" standalone="no"?>
<!-- Created with Inkscape (http://www.inkscape.org/) -->
<svg
   xmlns:dc="http://purl.org/dc/elements/1.1/"
   xmlns:cc="http://web.resource.org/cc/"
   xmlns:rdf="http://www.w3.org/1999/02/22-rdf-syntax-ns#"
   xmlns:svg="http://www.w3.org/2000/svg"
   xmlns="http://www.w3.org/2000/svg"
   xmlns:sodipodi="http://sodipodi.sourceforge.net/DTD/sodipodi-0.dtd"
   xmlns:inkscape="http://www.inkscape.org/namespaces/inkscape"
   width="744.09448"
   height="910.62988"
   id="svg12087"
   sodipodi:version="0.32"
   inkscape:version="0.45.1"
   sodipodi:docbase="F:\"
   sodipodi:docname="Wappen_Stadt_Nordhorn.svg"
   inkscape:output_extension="org.inkscape.output.svg.inkscape"
   version="1.0">
  <defs
     id="defs3" />
  <sodipodi:namedview
     inkscape:document-units="mm"
     id="base"
     pagecolor="#ffffff"
     bordercolor="#666666"
     borderopacity="1.0"
     inkscape:pageopacity="0.0"
     inkscape:pageshadow="2"
     inkscape:zoom="0.35"
     inkscape:cx="350"
     inkscape:cy="520"
     inkscape:current-layer="layer1"
     inkscape:window-width="797"
     inkscape:window-height="573"
     inkscape:window-x="264"
     inkscape:window-y="122"
     width="210mm"
     height="257mm"
     units="mm" />
  <metadata
     id="metadata4">
    <rdf:RDF>
      <cc:Work
         rdf:about="">
        <dc:format>image/svg+xml</dc:format>
        <dc:type
           rdf:resource="http://purl.org/dc/dcmitype/StillImage" />
      </cc:Work>
    </rdf:RDF>
  </metadata>
  <g
     inkscape:label="Layer 1"
     inkscape:groupmode="layer"
     id="layer1">
    <g
       id="g3167"
       transform="matrix(1.0325022,0,0,1.0325022,-17.721108,-97.488693)">
      <path
         sodipodi:nodetypes="cccccc"
         style="color:#000000;fill:#ff2814;fill-opacity:1;fill-rule:nonzero;stroke:#000000;stroke-width:17.41666031;stroke-linecap:butt;stroke-linejoin:miter;marker:none;marker-start:none;marker-mid:none;marker-end:none;stroke-miterlimit:4;stroke-dasharray:none;stroke-dashoffset:0;stroke-opacity:1;visibility:visible;display:inline;overflow:visible;enable-background:accumulate"
         d="M 377.9097,968.89774 C 175.55208,969.02464 27.215479,829.17582 26.798177,688.23412 C 25.869094,173.33212 27.40474,562.30288 27.394265,108.34879 C 417.35891,106.36174 213.15732,107.67744 726.33571,107.73344 C 728.34944,597.12698 728.14084,480.31971 726.48433,670.77924 C 727.08681,831.08386 570.73355,969.21203 377.9097,968.89774 z "
         id="path5240" />
      <path
         transform="matrix(0.5048259,0,0,0.4661663,135.41799,190.04168)"
         d="M 64.169668 -4.0557413 A 90.209534 94.394508 0 1 1  -116.2494,-4.0557413 A 90.209534 94.394508 0 1 1  64.169668 -4.0557413 z"
         sodipodi:ry="94.394508"
         sodipodi:rx="90.209534"
         sodipodi:cy="-4.0557413"
         sodipodi:cx="-26.039865"
         id="path2256"
         style="fill:#ffff00;fill-opacity:1;stroke:#000000;stroke-width:23.29444504;stroke-miterlimit:4;stroke-dasharray:none;stroke-opacity:1"
         sodipodi:type="arc" />
      <path
         transform="matrix(0.5048259,0,0,0.4661663,392.84972,191.02506)"
         d="M 64.169668 -4.0557413 A 90.209534 94.394508 0 1 1  -116.2494,-4.0557413 A 90.209534 94.394508 0 1 1  64.169668 -4.0557413 z"
         sodipodi:ry="94.394508"
         sodipodi:rx="90.209534"
         sodipodi:cy="-4.0557413"
         sodipodi:cx="-26.039865"
         id="path3231"
         style="fill:#ffff00;fill-opacity:1;stroke:#000000;stroke-width:23.29444504;stroke-miterlimit:4;stroke-dasharray:none;stroke-opacity:1"
         sodipodi:type="arc" />
      <path
         transform="matrix(0.5048259,0,0,0.4661663,647.04421,189.05306)"
         d="M 64.169668 -4.0557413 A 90.209534 94.394508 0 1 1  -116.2494,-4.0557413 A 90.209534 94.394508 0 1 1  64.169668 -4.0557413 z"
         sodipodi:ry="94.394508"
         sodipodi:rx="90.209534"
         sodipodi:cy="-4.0557413"
         sodipodi:cx="-26.039865"
         id="path3233"
         style="fill:#ffff00;fill-opacity:1;stroke:#000000;stroke-width:23.29444504;stroke-miterlimit:4;stroke-dasharray:none;stroke-opacity:1"
         sodipodi:type="arc" />
      <path
         transform="matrix(0.5048259,0,0,0.4661663,289.34072,314.94684)"
         d="M 64.169668 -4.0557413 A 90.209534 94.394508 0 1 1  -116.2494,-4.0557413 A 90.209534 94.394508 0 1 1  64.169668 -4.0557413 z"
         sodipodi:ry="94.394508"
         sodipodi:rx="90.209534"
         sodipodi:cy="-4.0557413"
         sodipodi:cx="-26.039865"
         id="path3235"
         style="fill:#ffff00;fill-opacity:1;stroke:#000000;stroke-width:23.29444504;stroke-miterlimit:4;stroke-dasharray:none;stroke-opacity:1"
         sodipodi:type="arc" />
      <path
         transform="matrix(0.5048259,0,0,0.4661663,489.67303,312.97484)"
         d="M 64.169668 -4.0557413 A 90.209534 94.394508 0 1 1  -116.2494,-4.0557413 A 90.209534 94.394508 0 1 1  64.169668 -4.0557413 z"
         sodipodi:ry="94.394508"
         sodipodi:rx="90.209534"
         sodipodi:cy="-4.0557413"
         sodipodi:cx="-26.039865"
         id="path3237"
         style="fill:#ffff00;fill-opacity:1;stroke:#000000;stroke-width:23.29444504;stroke-miterlimit:4;stroke-dasharray:none;stroke-opacity:1"
         sodipodi:type="arc" />
      <path
         transform="matrix(0.8218287,0,0,1.0822803,-351.33769,-232.80625)"
         d="M 1272 545 A 101 37 0 1 1  1070,545 A 101 37 0 1 1  1272 545 z"
         sodipodi:ry="37"
         sodipodi:rx="101"
         sodipodi:cy="545"
         sodipodi:cx="1171"
         id="path3283"
         style="fill:#ffff00;fill-opacity:1;stroke:#000000;stroke-width:14.1635685;stroke-miterlimit:4;stroke-dasharray:none;stroke-opacity:1"
         sodipodi:type="arc" />
      <path
         transform="matrix(0.5048259,0,0,0.4661663,389.74106,441.53812)"
         d="M 64.169668 -4.0557413 A 90.209534 94.394508 0 1 1  -116.2494,-4.0557413 A 90.209534 94.394508 0 1 1  64.169668 -4.0557413 z"
         sodipodi:ry="94.394508"
         sodipodi:rx="90.209534"
         sodipodi:cy="-4.0557413"
         sodipodi:cx="-26.039865"
         id="path3239"
         style="fill:#ffff00;fill-opacity:1;stroke:#000000;stroke-width:23.29444504;stroke-miterlimit:4;stroke-dasharray:none;stroke-opacity:1"
         sodipodi:type="arc" />
      <path
         transform="matrix(0.5048259,0,0,0.4661663,641.72228,639.53442)"
         d="M 64.169668 -4.0557413 A 90.209534 94.394508 0 1 1  -116.2494,-4.0557413 A 90.209534 94.394508 0 1 1  64.169668 -4.0557413 z"
         sodipodi:ry="94.394508"
         sodipodi:rx="90.209534"
         sodipodi:cy="-4.0557413"
         sodipodi:cx="-26.039865"
         id="path3243"
         style="fill:#ffff00;fill-opacity:1;stroke:#000000;stroke-width:23.29444504;stroke-miterlimit:4;stroke-dasharray:none;stroke-opacity:1"
         sodipodi:type="arc" />
      <path
         transform="matrix(0.5048259,0,0,0.4661663,127.83922,641.3661)"
         d="M 64.169668 -4.0557413 A 90.209534 94.394508 0 1 1  -116.2494,-4.0557413 A 90.209534 94.394508 0 1 1  64.169668 -4.0557413 z"
         sodipodi:ry="94.394508"
         sodipodi:rx="90.209534"
         sodipodi:cy="-4.0557413"
         sodipodi:cx="-26.039865"
         id="path3251"
         style="fill:#ffff00;fill-opacity:1;stroke:#000000;stroke-width:23.29444504;stroke-miterlimit:4;stroke-dasharray:none;stroke-opacity:1"
         sodipodi:type="arc" />
      <path
         transform="matrix(0.5048259,0,0,0.4661663,390.51865,742.49076)"
         d="M 64.169668 -4.0557413 A 90.209534 94.394508 0 1 1  -116.2494,-4.0557413 A 90.209534 94.394508 0 1 1  64.169668 -4.0557413 z"
         sodipodi:ry="94.394508"
         sodipodi:rx="90.209534"
         sodipodi:cy="-4.0557413"
         sodipodi:cx="-26.039865"
         id="path3253"
         style="fill:#ffff00;fill-opacity:1;stroke:#000000;stroke-width:23.29444504;stroke-miterlimit:4;stroke-dasharray:none;stroke-opacity:1"
         sodipodi:type="arc" />
      <path
         transform="matrix(0.5048259,0,0,0.4661663,176.08098,765.74248)"
         d="M 64.169668 -4.0557413 A 90.209534 94.394508 0 1 1  -116.2494,-4.0557413 A 90.209534 94.394508 0 1 1  64.169668 -4.0557413 z"
         sodipodi:ry="94.394508"
         sodipodi:rx="90.209534"
         sodipodi:cy="-4.0557413"
         sodipodi:cx="-26.039865"
         id="path3257"
         style="fill:#ffff00;fill-opacity:1;stroke:#000000;stroke-width:23.29444504;stroke-miterlimit:4;stroke-dasharray:none;stroke-opacity:1"
         sodipodi:type="arc" />
      <path
         transform="matrix(0.5048259,0,0,0.4661663,582.95365,764.75385)"
         d="M 64.169668 -4.0557413 A 90.209534 94.394508 0 1 1  -116.2494,-4.0557413 A 90.209534 94.394508 0 1 1  64.169668 -4.0557413 z"
         sodipodi:ry="94.394508"
         sodipodi:rx="90.209534"
         sodipodi:cy="-4.0557413"
         sodipodi:cx="-26.039865"
         id="path3261"
         style="fill:#ffff00;fill-opacity:1;stroke:#000000;stroke-width:23.29444504;stroke-miterlimit:4;stroke-dasharray:none;stroke-opacity:1"
         sodipodi:type="arc" />
      <path
         transform="matrix(0.5048259,0,0,0.4661663,289.42568,860.39665)"
         d="M 64.169668 -4.0557413 A 90.209534 94.394508 0 1 1  -116.2494,-4.0557413 A 90.209534 94.394508 0 1 1  64.169668 -4.0557413 z"
         sodipodi:ry="94.394508"
         sodipodi:rx="90.209534"
         sodipodi:cy="-4.0557413"
         sodipodi:cx="-26.039865"
         id="path3263"
         style="fill:#ffff00;fill-opacity:1;stroke:#000000;stroke-width:23.29444504;stroke-miterlimit:4;stroke-dasharray:none;stroke-opacity:1"
         sodipodi:type="arc" />
      <path
         transform="matrix(0.5048259,0,0,0.4661663,479.37198,861.38002)"
         d="M 64.169668 -4.0557413 A 90.209534 94.394508 0 1 1  -116.2494,-4.0557413 A 90.209534 94.394508 0 1 1  64.169668 -4.0557413 z"
         sodipodi:ry="94.394508"
         sodipodi:rx="90.209534"
         sodipodi:cy="-4.0557413"
         sodipodi:cx="-26.039865"
         id="path3265"
         style="fill:#ffff00;fill-opacity:1;stroke:#000000;stroke-width:23.29444504;stroke-miterlimit:4;stroke-dasharray:none;stroke-opacity:1"
         sodipodi:type="arc" />
      <path
         transform="matrix(0.5625815,0,0,0.5576426,-47.631502,51.749452)"
         d="M 1272 545 A 101 37 0 1 1  1070,545 A 101 37 0 1 1  1272 545 z"
         sodipodi:ry="37"
         sodipodi:rx="101"
         sodipodi:cy="545"
         sodipodi:cx="1171"
         id="path3277"
         style="fill:#000000;fill-opacity:1;stroke:#000000;stroke-width:10;stroke-miterlimit:4;stroke-dasharray:none;stroke-opacity:1"
         sodipodi:type="arc" />
      <path
         sodipodi:nodetypes="ccccczccczcccccscccsc"
         style="fill:#ffff00;fill-opacity:1;stroke:#000000;stroke-width:12.44047165;stroke-miterlimit:4;stroke-dasharray:none;stroke-opacity:1"
         d="M 690.21565,382.33087 C 690.13114,380.51969 696.95407,361.51968 677.05196,379.22684 C 652.14163,389.35126 633.92832,392.83904 611.75124,394.463 C 564.26588,393.71065 555.12095,383.25744 536.18962,374.70079 C 531.47844,369.67309 531.85227,363.92511 532.3906,399.6521 C 527.4907,518.24907 418.73259,576.9953 309.52767,574.32889 C 200.70944,571.66249 121.7265,494.06439 118.51667,395.46796 C 118.30232,380.9399 107.19226,387.89515 90.022354,386.42989 C 84.529896,386.21887 83.77829,394.82285 82.312698,399.53184 C 76.057151,536.5327 186.35931,662.03061 358.45592,661.30297 C 531.32584,660.57532 663.40091,530.1146 690.21565,382.33087 z M 123.2969,387.1834 C 129.50304,386.99847 131.89993,386.21315 133.29492,383.90763 C 136.68802,371.93153 117.67844,370.45383 126.18774,359.02155 C 130.5607,352.46127 136.79122,342.50814 133.76379,334.43294 C 131.5128,329.6713 129.31333,329.14534 112.55352,329.36129 C 101.34777,329.50565 83.795464,329.0763 82.470332,330.02319 C 74.857824,337.61702 79.341476,351.33646 85.398545,358.35683 C 94.169636,365.96774 78.346519,371.59772 71.646072,377.8291 C 67.96313,381.92436 71.959577,390.47761 79.465921,386.77293 C 80.277055,386.37261 109.70503,387.37313 123.2969,387.1834 z "
         id="path12066" />
      <text
         id="text2192"
         y="111.36218"
         x="23.571411"
         style="font-size:12px;font-style:normal;font-weight:normal;fill:#000000;fill-opacity:1;stroke:none;stroke-width:1px;stroke-linecap:butt;stroke-linejoin:miter;stroke-opacity:1;font-family:Bitstream Vera Sans"
         xml:space="preserve"><tspan
           y="111.36218"
           x="23.571411"
           id="tspan2194"
           sodipodi:role="line">JanVolkersNeuss</tspan></text>
    </g>
  </g>
</svg>

<svg xmlns="http://www.w3.org/2000/svg" width="744.094" height="910.63" version="1.0"><path style="color:#000;fill:#ff2814;fill-opacity:1;fill-rule:nonzero;stroke:#000;stroke-width:17.41666031;stroke-linecap:butt;stroke-linejoin:miter;marker:none;marker-start:none;marker-mid:none;marker-end:none;stroke-miterlimit:4;stroke-dasharray:none;stroke-dashoffset:0;stroke-opacity:1;visibility:visible;display:inline;overflow:visible;enable-background:accumulate" d="M377.91 968.898c-202.358.127-350.695-139.722-351.112-280.664-.929-514.902.607-125.931.596-579.885 389.965-1.987 185.763-.672 698.942-.616 2.013 489.394 1.805 372.587.148 563.046.603 160.305-155.75 298.433-348.574 298.119z" transform="translate(-17.721 -97.489) scale(1.0325)"/><path transform="matrix(.52123 0 0 .48132 122.098 98.73)" d="M64.17-4.056a90.21 94.395 0 1 1-180.42 0 90.21 94.395 0 1 1 180.42 0z" style="fill:#ff0;fill-opacity:1;stroke:#000;stroke-width:23.29444504;stroke-miterlimit:4;stroke-dasharray:none;stroke-opacity:1"/><path transform="matrix(.52123 0 0 .48132 387.897 99.745)" d="M64.17-4.056a90.21 94.395 0 1 1-180.42 0 90.21 94.395 0 1 1 180.42 0z" style="fill:#ff0;fill-opacity:1;stroke:#000;stroke-width:23.29444504;stroke-miterlimit:4;stroke-dasharray:none;stroke-opacity:1"/><path transform="matrix(.52123 0 0 .48132 650.353 97.709)" d="M64.17-4.056a90.21 94.395 0 1 1-180.42 0 90.21 94.395 0 1 1 180.42 0z" style="fill:#ff0;fill-opacity:1;stroke:#000;stroke-width:23.29444504;stroke-miterlimit:4;stroke-dasharray:none;stroke-opacity:1"/><path transform="matrix(.52123 0 0 .48132 281.024 227.695)" d="M64.17-4.056a90.21 94.395 0 1 1-180.42 0 90.21 94.395 0 1 1 180.42 0z" style="fill:#ff0;fill-opacity:1;stroke:#000;stroke-width:23.29444504;stroke-miterlimit:4;stroke-dasharray:none;stroke-opacity:1"/><path transform="matrix(.52123 0 0 .48132 487.867 225.659)" d="M64.17-4.056a90.21 94.395 0 1 1-180.42 0 90.21 94.395 0 1 1 180.42 0z" style="fill:#ff0;fill-opacity:1;stroke:#000;stroke-width:23.29444504;stroke-miterlimit:4;stroke-dasharray:none;stroke-opacity:1"/><path transform="matrix(.84854 0 0 1.11746 -380.478 -337.862)" d="M1272 545a101 37 0 1 1-202 0 101 37 0 1 1 202 0z" style="fill:#ff0;fill-opacity:1;stroke:#000;stroke-width:14.1635685;stroke-miterlimit:4;stroke-dasharray:none;stroke-opacity:1"/><path transform="matrix(.52123 0 0 .48132 384.687 358.4)" d="M64.17-4.056a90.21 94.395 0 1 1-180.42 0 90.21 94.395 0 1 1 180.42 0z" style="fill:#ff0;fill-opacity:1;stroke:#000;stroke-width:23.29444504;stroke-miterlimit:4;stroke-dasharray:none;stroke-opacity:1"/><path transform="matrix(.52123 0 0 .48132 644.859 562.832)" d="M64.17-4.056a90.21 94.395 0 1 1-180.42 0 90.21 94.395 0 1 1 180.42 0z" style="fill:#ff0;fill-opacity:1;stroke:#000;stroke-width:23.29444504;stroke-miterlimit:4;stroke-dasharray:none;stroke-opacity:1"/><path transform="matrix(.52123 0 0 .48132 114.273 564.723)" d="M64.17-4.056a90.21 94.395 0 1 1-180.42 0 90.21 94.395 0 1 1 180.42 0z" style="fill:#ff0;fill-opacity:1;stroke:#000;stroke-width:23.29444504;stroke-miterlimit:4;stroke-dasharray:none;stroke-opacity:1"/><path transform="matrix(.52123 0 0 .48132 385.49 669.135)" d="M64.17-4.056a90.21 94.395 0 1 1-180.42 0 90.21 94.395 0 1 1 180.42 0z" style="fill:#ff0;fill-opacity:1;stroke:#000;stroke-width:23.29444504;stroke-miterlimit:4;stroke-dasharray:none;stroke-opacity:1"/><path transform="matrix(.52123 0 0 .48132 164.083 693.142)" d="M64.17-4.056a90.21 94.395 0 1 1-180.42 0 90.21 94.395 0 1 1 180.42 0z" style="fill:#ff0;fill-opacity:1;stroke:#000;stroke-width:23.29444504;stroke-miterlimit:4;stroke-dasharray:none;stroke-opacity:1"/><path transform="matrix(.52123 0 0 .48132 584.18 692.121)" d="M64.17-4.056a90.21 94.395 0 1 1-180.42 0 90.21 94.395 0 1 1 180.42 0z" style="fill:#ff0;fill-opacity:1;stroke:#000;stroke-width:23.29444504;stroke-miterlimit:4;stroke-dasharray:none;stroke-opacity:1"/><path transform="matrix(.52123 0 0 .48132 281.112 790.873)" d="M64.17-4.056a90.21 94.395 0 1 1-180.42 0 90.21 94.395 0 1 1 180.42 0z" style="fill:#ff0;fill-opacity:1;stroke:#000;stroke-width:23.29444504;stroke-miterlimit:4;stroke-dasharray:none;stroke-opacity:1"/><path transform="matrix(.52123 0 0 .48132 477.232 791.888)" d="M64.17-4.056a90.21 94.395 0 1 1-180.42 0 90.21 94.395 0 1 1 180.42 0z" style="fill:#ff0;fill-opacity:1;stroke:#000;stroke-width:23.29444504;stroke-miterlimit:4;stroke-dasharray:none;stroke-opacity:1"/><path transform="matrix(.58087 0 0 .57577 -66.9 -44.057)" d="M1272 545a101 37 0 1 1-202 0 101 37 0 1 1 202 0z" style="fill:#000;fill-opacity:1;stroke:#000;stroke-width:10;stroke-miterlimit:4;stroke-dasharray:none;stroke-opacity:1"/><path style="fill:#ff0;fill-opacity:1;stroke:#000;stroke-width:12.44047165;stroke-miterlimit:4;stroke-dasharray:none;stroke-opacity:1" d="M690.216 382.33c-.085-1.81 6.738-20.81-13.164-3.103-24.91 10.124-43.124 13.612-65.3 15.236-47.486-.752-56.631-11.206-75.562-19.762-4.712-5.028-4.338-10.776-3.8 24.951-4.9 118.597-113.657 177.343-222.862 174.677-108.819-2.667-187.802-80.265-191.011-178.861-.215-14.528-11.325-7.573-28.495-9.038-5.492-.211-6.244 8.393-7.71 13.102-6.255 137 104.047 262.499 276.144 261.771 172.87-.728 304.945-131.188 331.76-278.972zm-566.92 4.853c6.207-.185 8.604-.97 9.999-3.275 3.393-11.976-15.617-13.454-7.107-24.886 4.373-6.56 10.603-16.514 7.576-24.59-2.251-4.76-4.45-5.287-21.21-5.07-11.206.144-28.759-.286-30.084.661-7.612 7.594-3.129 21.313 2.929 28.334 8.77 7.61-7.052 13.24-13.753 19.472-3.683 4.095.314 12.649 7.82 8.944.811-.4 30.239.6 43.83.41z" transform="translate(-17.721 -97.489) scale(1.0325)"/><text y="111.362" x="23.571" style="font-size:12px;font-style:normal;font-weight:400;fill:#000;fill-opacity:1;stroke:none;stroke-width:1px;stroke-linecap:butt;stroke-linejoin:miter;stroke-opacity:1;font-family:Bitstream Vera Sans" xml:space="preserve" transform="translate(-17.721 -97.489) scale(1.0325)"><tspan y="111.362" x="23.571">JanVolkersNeuss</tspan></text></svg>
